X: 13692
T: For Friends
R: jig
M: 6/8
K: Dmajor
|:A|d2A BAG|FAD D2F|EFG AGF|GAB c2A|d2A BAG|FAD D2F|EFG ABc|(d3 d2):|
|:e|f2d dAF|EAc c2A|dcd fed|cAA A2G|FAA EAA|FAA g2g|fed ABc|(d3 d2):|

